X: 1
T:Scholar (#306), The
M:4/4
L:1/8
S:John Kelly, San Francisco
R:Hornpipe
K:D
(3ABc|sdfsaf sgfseg|sfdsAG sFGsAc|BGBG E2 sefs|sgfesc dcBA|
defa sg2 fgs|ecAG sFGsAc|BGBG E2 ef|gfec d2:|
|:A2|dfaf dfaf|db (3bbb bagf|gfed cded|cded cABc|
dfaf dfaf|db (3bbb bagf|gfef gbag|(3fga ec d2:|
|:fa|(3aaa fd Adfa|(3aaa fa bafa|(3ggg ec A2 segs|(3ggg eg bafa|
(3aaa sfds Adfa|(3aaa sfas bafa|gfef sgbsag|(3fga secs d2:||
%
% Long before I had any idea of publishing a work of this character,
% the fame of John Kelly, and Joseph P. Tamony, as phenomenal
% fiddlers, had reached Chicago. The measured score of their tunes,
% for which I am indebted to our mutual friend Francis E. Walsh of
% San Francisco, is incapable of doing justice to the spirit and 
% excellence of their execution, for all gifted Irish musicians 
% instinctively embellish their performance with peculiar trills, turns
% and graces, more easily recognized than described.
%    "The Scholar" was first printed in Levey's Dance Music of 
% Ireland, Vol.1, London 1858; and not since then until the publication
% of the O'Neill Collections in recent years. The tune seems to have 
% been a favorite with fiddlers and pipers of Longford, Leitrim and
% Roscommon, as early as the second quarter of the 19th Century;
% and, by the way, our talented contributor Mr Kelly hails from the
% latter county.

